src/scalable/mimetypes/application-vnd.oasis.opendocument.text.svg

<?xml version="1.0" encoding="UTF-8" standalone="no"?>
<svg
   xmlns:dc="http://purl.org/dc/elements/1.1/"
   xmlns:cc="http://creativecommons.org/ns#"
   xmlns:rdf="http://www.w3.org/1999/02/22-rdf-syntax-ns#"
   xmlns:svg="http://www.w3.org/2000/svg"
   xmlns="http://www.w3.org/2000/svg"
   xmlns:xlink="http://www.w3.org/1999/xlink"
   xmlns:sodipodi="http://sodipodi.sourceforge.net/DTD/sodipodi-0.dtd"
   xmlns:inkscape="http://www.inkscape.org/namespaces/inkscape"
   width="48px"
   height="48px"
   viewBox="0 0 48 48"
   version="1.1"
   id="svg25"
   sodipodi:docname="application-vnd.oasis.opendocument.text.svg"
   inkscape:version="0.92.2 2405546, 2018-03-11">
  <metadata
     id="metadata29">
    <rdf:RDF>
      <cc:Work
         rdf:about="">
        <dc:format>image/svg+xml</dc:format>
        <dc:type
           rdf:resource="http://purl.org/dc/dcmitype/StillImage" />
      </cc:Work>
    </rdf:RDF>
  </metadata>
  <sodipodi:namedview
     pagecolor="#ffffff"
     bordercolor="#666666"
     borderopacity="1"
     objecttolerance="10"
     gridtolerance="10"
     guidetolerance="10"
     inkscape:pageopacity="0"
     inkscape:pageshadow="2"
     inkscape:window-width="1079"
     inkscape:window-height="683"
     id="namedview27"
     showgrid="false"
     inkscape:zoom="4.9166667"
     inkscape:cx="-2.6440676"
     inkscape:cy="24"
     inkscape:window-x="447"
     inkscape:window-y="138"
     inkscape:window-maximized="0"
     inkscape:current-layer="svg25" />
  <!-- Generator: Sketch 41.2 (35397) - http://www.bohemiancoding.com/sketch -->
  <title
     id="title2">application-vnd.oasis.opendocument.text</title>
  <desc
     id="desc4">Created with Sketch.</desc>
  <g
     id="g829">
    <rect
       rx="2"
       ry="1.9047618"
       y="4"
       x="6"
       height="40"
       width="36"
       id="rect834"
       style="opacity:1;fill:#0091ea;fill-opacity:1;stroke:none;stroke-width:0.92582005;stroke-linecap:round;stroke-linejoin:round;stroke-miterlimit:4;stroke-dasharray:none;stroke-opacity:0.05882353;paint-order:markers stroke fill" />
    <path
       inkscape:connector-curvature="0"
       id="rect866"
       d="M 42,17.242188 A 40,40 0 0 1 23.494141,44 H 40 c 1.108,0 2,-0.849059 2,-1.904297 z"
       style="opacity:0.15;fill:url(#linearGradient877);fill-opacity:1;stroke:none;stroke-width:0.92582005;stroke-linecap:round;stroke-linejoin:round;stroke-miterlimit:4;stroke-dasharray:none;stroke-opacity:0.05882353;paint-order:markers stroke fill" />
  </g>
  <defs
     id="defs11">
    <linearGradient
       inkscape:collect="always"
       xlink:href="#linearGradient875"
       id="linearGradient877"
       x1="32.74707"
       y1="44"
       x2="32.74707"
       y2="17.242188"
       gradientUnits="userSpaceOnUse" />
    <linearGradient
       inkscape:collect="always"
       id="linearGradient875">
      <stop
         style="stop-color:#000000;stop-opacity:1;"
         offset="0"
         id="stop871" />
      <stop
         style="stop-color:#000000;stop-opacity:0;"
         offset="1"
         id="stop873" />
    </linearGradient>
  </defs>
  <g
     id="Page-1"
     stroke="none"
     stroke-width="1"
     fill="none"
     fill-rule="evenodd">
    <g
       id="application-vnd.oasis.opendocument.text">
      <path
         d="M25,19.5 L33,19.5 C33.2761424,19.5 33.5,19.2761424 33.5,19 C33.5,18.7238576 33.2761424,18.5 33,18.5 L25,18.5 C24.7238576,18.5 24.5,18.7238576 24.5,19 C24.5,19.2761424 24.7238576,19.5 25,19.5 Z"
         id="Path-381"
         fill="#FFFFFF" />
      <path
         d="M25,23.5 L33,23.5 C33.2761424,23.5 33.5,23.2761424 33.5,23 C33.5,22.7238576 33.2761424,22.5 33,22.5 L25,22.5 C24.7238576,22.5 24.5,22.7238576 24.5,23 C24.5,23.2761424 24.7238576,23.5 25,23.5 Z"
         id="path16"
         fill="#FFFFFF" />
      <path
         d="M16,27.5 L33,27.5 C33.2761424,27.5 33.5,27.2761424 33.5,27 C33.5,26.7238576 33.2761424,26.5 33,26.5 L16,26.5 C15.7238576,26.5 15.5,26.7238576 15.5,27 C15.5,27.2761424 15.7238576,27.5 16,27.5 Z"
         id="path18"
         fill="#FFFFFF" />
      <path
         d="M16,31.5 L33,31.5 C33.2761424,31.5 33.5,31.2761424 33.5,31 C33.5,30.7238576 33.2761424,30.5 33,30.5 L16,30.5 C15.7238576,30.5 15.5,30.7238576 15.5,31 C15.5,31.2761424 15.7238576,31.5 16,31.5 Z"
         id="path20"
         fill="#FFFFFF" />
      <path
         d="M20.1689453,23.1894531 L19.8271484,22.2910156 L16.9169922,22.2910156 L16.5751953,23.2089844 C16.4417311,23.5670591 16.3278,23.8087559 16.2333984,23.934082 C16.1389969,24.0594082 15.9843761,24.1220703 15.7695312,24.1220703 C15.5872387,24.1220703 15.4261075,24.0553392 15.2861328,23.921875 C15.1461582,23.7884108 15.0761719,23.6370451 15.0761719,23.4677734 C15.0761719,23.3701167 15.0924478,23.2692062 15.125,23.1650391 C15.1575522,23.0608719 15.2112626,22.9160166 15.2861328,22.7304688 L17.1171875,18.0820312 C17.1692711,17.948567 17.2319332,17.7882496 17.3051758,17.6010742 C17.3784183,17.4138988 17.4565426,17.2584642 17.5395508,17.1347656 C17.622559,17.0110671 17.7316074,16.9109704 17.8666992,16.8344727 C18.001791,16.7579749 18.1686188,16.7197266 18.3671875,16.7197266 C18.5690114,16.7197266 18.7374668,16.7579749 18.8725586,16.8344727 C19.0076504,16.9109704 19.1166988,17.0094395 19.199707,17.1298828 C19.2827153,17.2503261 19.3527015,17.3797194 19.409668,17.5180664 C19.4666344,17.6564135 19.5390621,17.8411447 19.6269531,18.0722656 L21.4970703,22.6914062 C21.6435554,23.0429705 21.7167969,23.2985018 21.7167969,23.4580078 C21.7167969,23.6240243 21.6476244,23.7762037 21.5092773,23.9145508 C21.3709303,24.0528978 21.2041025,24.1220703 21.0087891,24.1220703 C20.8948562,24.1220703 20.7972009,24.1017255 20.7158203,24.0610352 C20.6344397,24.0203448 20.566081,23.9650069 20.5107422,23.8950195 C20.4554034,23.8250322 20.3959964,23.7176114 20.3325195,23.5727539 C20.2690427,23.4278964 20.2145185,23.3001308 20.1689453,23.1894531 Z M17.2978516,21.2021484 L19.4365234,21.2021484 L18.3574219,18.2480469 L17.2978516,21.2021484 Z"
         id="W"
         fill="#FFFFFF" />
    </g>
  </g>
</svg>

<svg xmlns="http://www.w3.org/2000/svg" xmlns:xlink="http://www.w3.org/1999/xlink" width="48" height="48"><g paint-order="markers stroke fill"><rect rx="2" ry="1.905" y="4" x="6" height="40" width="36" fill="#0091ea"/><path d="M42 17.242A40 40 0 0 1 23.494 44H40c1.108 0 2-.85 2-1.904z" opacity=".15" fill="url(#a)"/></g><defs><linearGradient xlink:href="#b" id="a" x1="32.747" y1="44" x2="32.747" y2="17.242" gradientUnits="userSpaceOnUse"/><linearGradient id="b"><stop offset="0"/><stop offset="1" stop-opacity="0"/></linearGradient></defs><g fill="#FFF" fill-rule="evenodd"><path d="M25 19.5h8a.5.5 0 1 0 0-1h-8a.5.5 0 1 0 0 1zM25 23.5h8a.5.5 0 1 0 0-1h-8a.5.5 0 1 0 0 1zM16 27.5h17a.5.5 0 1 0 0-1H16a.5.5 0 1 0 0 1zM16 31.5h17a.5.5 0 1 0 0-1H16a.5.5 0 1 0 0 1zM20.169 23.19l-.342-.899h-2.91l-.342.918c-.133.358-.247.6-.342.725-.094.125-.249.188-.463.188a.68.68 0 0 1-.484-.2.613.613 0 0 1-.21-.454c0-.098.016-.199.049-.303.033-.104.086-.249.161-.435l1.831-4.648.188-.48c.073-.188.152-.344.235-.467a.952.952 0 0 1 .327-.3c.135-.077.302-.115.5-.115.202 0 .37.038.506.114a.972.972 0 0 1 .327.296c.083.12.153.25.21.388.057.138.13.323.217.554l1.87 4.62c.147.351.22.607.22.766 0 .166-.07.318-.208.457a.682.682 0 0 1-.5.207.6.6 0 0 1-.498-.227 1.527 1.527 0 0 1-.178-.322 18.884 18.884 0 0 1-.164-.384zm-2.871-1.988h2.139l-1.08-2.954-1.06 2.954z"/></g></svg>
